assets/affinitydesigner/original.svg

<svg clip-rule="evenodd" fill-rule="evenodd" stroke-linejoin="round" stroke-miterlimit="2" viewBox="0 0 1024 1024" xmlns="http://www.w3.org/2000/svg" xmlns:xlink="http://www.w3.org/1999/xlink"><radialGradient id="a" cx="2271.03" cy="-89.26" gradientUnits="userSpaceOnUse" r="1038.26"><stop offset="0" stop-color="#6be1fb"/><stop offset="1" stop-color="#38bdfa"/></radialGradient><path d="m1024 100c0-55.192-44.808-100-100-100h-824c-55.192 0-100 44.808-100 100v824c0 55.192 44.808 100 100 100h824c55.192 0 100-44.808 100-100z" fill="#134881"/><path d="m2477 909.311c-.17 21.934-18.03 39.689-40 39.689h-403.69l-172.55-298.876h616.24zm-874-.311v-175.487l380.19-658.513h148.58l-321.19 556.33 183.4 317.67h-350.98c-22.08 0-40-17.923-40-40m487.17-292.956h-150.22c-16.77 0-32.27-8.8-40.65-23.327-8.38-14.502-8.38-32.433 0-46.935l75.15-130.17zm346.83-541.044c21.97 0 39.83 17.755 40 39.689v501.355h-347.48l-135.41-234.495 176.99-306.549z" fill="url(#a)" transform="translate(-1528)"/></svg>

<svg xmlns="http://www.w3.org/2000/svg" fill-rule="evenodd" stroke-linejoin="round" stroke-miterlimit="2" clip-rule="evenodd" viewBox="0 0 1024 1024"><radialGradient id="a" cx="2271.03" cy="-89.26" r="1038.26" gradientUnits="userSpaceOnUse"><stop offset="0" stop-color="#6be1fb"/><stop offset="1" stop-color="#38bdfa"/></radialGradient><path fill="#134881" d="M1024 100c0-55.192-44.808-100-100-100H100C44.808 0 0 44.808 0 100v824c0 55.192 44.808 100 100 100h824c55.192 0 100-44.808 100-100z"/><path fill="url(#a)" d="M2477 909.311c-.17 21.934-18.03 39.689-40 39.689h-403.69l-172.55-298.876H2477zM1603 909V733.513L1983.19 75h148.58l-321.19 556.33L1993.98 949H1643c-22.08 0-40-17.923-40-40m487.17-292.956h-150.22c-16.77 0-32.27-8.8-40.65-23.327-8.38-14.502-8.38-32.433 0-46.935l75.15-130.17zM2437 75c21.97 0 39.83 17.755 40 39.689v501.355h-347.48l-135.41-234.495L2171.1 75z" transform="translate(-1528)"/></svg>
